X: 1043
T: Always Travelling
R: jig
M: 6/8
K: Eminor
|:BG{c/}AGEz BG|{c/}AGEFG~A3|{c/}BG{c/}AG~E2 FA|dAFD{A/})FE{A/}ED/E/|
BG{c/}AGEz BG|{c/}AGEFG~A3|~B3 AFA{c/}BA|dAFD{A/}FE{A/}Ez:|
fgfed z!slide!fg|{a/}fedefgaf|{a/}gfeg{a/}fd{a/}ed|{a/}fd AG{A/}FDDz|
J~f3ed/e/ddz|fedefgJaf|{a/}gfeg{a/}fd{a/}e^c|dBAG{A/}FDdz|
|:fgfed z!slide!fg|{a/}fedefgaf|{a/}gfeg{a/}fd{a/}ed|{a/}fd AG{A/}FDDz:|

